modules/hawcons-filled/icons/icon-46-amused-face-closed-eyes.svg

<?xml version="1.0" encoding="UTF-8" standalone="no"?>
<svg width="32px" height="32px" viewBox="0 0 32 32" version="1.1" xmlns="http://www.w3.org/2000/svg" xmlns:xlink="http://www.w3.org/1999/xlink" xmlns:sketch="http://www.bohemiancoding.com/sketch/ns">
    <!-- Generator: Sketch 3.0.3 (7891) - http://www.bohemiancoding.com/sketch -->
    <title>icon 46 amused face closed eyes</title>
    <desc>Created with Sketch.</desc>
    <defs></defs>
    <g id="Page-1" stroke="none" stroke-width="1" fill="none" fill-rule="evenodd" sketch:type="MSPage">
        <g id="icon-46-amused-face-closed-eyes" sketch:type="MSArtboardGroup" fill="#929292">
            <path d="M16.5,29 C23.4035597,29 29,23.4035597 29,16.5 C29,9.59644029 23.4035597,4 16.5,4 C9.59644029,4 4,9.59644029 4,16.5 C4,23.4035597 9.59644029,29 16.5,29 Z M10.6215213,10.9670954 L10.0623284,11.796133 L13.3784787,14.0329046 L13.9376716,13.203867 L10.6215213,10.9670954 Z M19.0623284,13.203867 L19.6215213,14.0329046 L22.9376716,11.796133 L22.3784787,10.9670954 L19.0623284,13.203867 Z M16.4969482,21 C13.5,21 12,20 12,20 C12,20 13,23 16.5,23 C20,23 21,20 21,20 C21,20 19.4938965,21 16.4969482,21 Z" id="amused-face-closed-eyes" sketch:type="MSShapeGroup"></path>
        </g>
    </g>
</svg>

<svg width="32" height="32" xmlns="http://www.w3.org/2000/svg"><path d="M16.5 29C23.404 29 29 23.404 29 16.5S23.404 4 16.5 4 4 9.596 4 16.5 9.596 29 16.5 29zm-5.878-18.033l-.56.83 3.316 2.236.56-.83-3.316-2.236zm8.44 2.237l.56.829 3.316-2.237-.56-.829-3.316 2.237zM16.497 21C13.5 21 12 20 12 20s1 3 4.5 3 4.5-3 4.5-3-1.506 1-4.503 1z" fill="#929292" fill-rule="evenodd"/></svg>
